X:1
T:In light tripping measure
T:In light tripping measure
%%score [ 1 2 3 4 ]
L:1/8
Q:1/4=70
M:2/4
K:C
V:1 treble nm="I"
V:2 treble nm="II"
V:3 treble nm="III"
V:4 treble nm="IV"
V:1
 G | (Gc) e c | G2 E G | (GB) d B | (cG) E G | A2 A A | c3 c | (Be) d B | c3 :| %9
w: In|light _ trip- ping|meas- ure, Sur-|round- * ed by|pleas- * ure, We|count the gray|hours, That|too _ quick- ly|fly.|
V:2
 G | G2 C F | E !>!C2 E | (EG) F F | E3 E | F2 F F | A !>!F2 F | (FE) G F | E3 :| %9
w: A-|way, care and|sor- row, Ye|shall _ not come|nigh! A-|way, care and|sor- row, Ye|shall _ not come|nigh.|
V:3
 c | (cG) G A | c2 G c | (cd) B G | G2 G c | c2 c c | A3 A | (Gc) B G | G3 :| %9
w: In|light _ trip- ping|meas- ure, Sur-|round- * ed by|pleas- ure, We|count the gray|hours, That|too _ quick- ly|fly.|
V:4
 C | C2 C C | C2 z C | G2 G G | C2 z C | F2 F F | F !>!F2 F | G2 F D | C3 :| %9
w: Ye|shall not come|nigh! Ye|shall not come|nigh! A-|way, care and|sor- row, Ye|shall not come|nigh.|

